dist/assets/images/ico/ico_layer.svg

<svg width="21" height="21" viewBox="0 0 21 21" fill="none" xmlns="http://www.w3.org/2000/svg">
<rect x="0.75" y="0.388672" width="19.5" height="19.5" rx="0.75" fill="#D6CBB6"/>
<rect x="0.75" y="0.388672" width="19.5" height="19.5" rx="0.75" stroke="#534731" stroke-width="0.5"/>
<path d="M11.0455 16.1387L4.5 12.2779L8.66017 9.81782L8.98052 10.4014L5.81602 12.2779L11.0455 15.362L16.197 12.2779L13.0758 10.4014L13.4004 9.81782L17.4957 12.2779L11.0455 16.1387Z" fill="#212121"/>
<path d="M11.0455 11.8198L4.5 7.98595L11.0455 4.13867L17.5 7.98595L11.0455 11.8198ZM5.82035 7.98595L11.0455 11.0476L16.197 7.98595L11.0455 4.91531L5.82035 7.98595Z" fill="#212121"/>
</svg>

<svg width="21" height="21" fill="none" xmlns="http://www.w3.org/2000/svg"><rect x=".75" y=".389" width="19.5" height="19.5" rx=".75" fill="#D6CBB6"/><rect x=".75" y=".389" width="19.5" height="19.5" rx=".75" stroke="#534731" stroke-width=".5"/><path d="M11.046 16.139L4.5 12.278l4.16-2.46.32.583-3.164 1.877 5.23 3.084 5.151-3.084-3.121-1.877.324-.583 4.096 2.46-6.45 3.86z" fill="#212121"/><path d="M11.046 11.82L4.5 7.986l6.546-3.847L17.5 7.986l-6.454 3.834zM5.82 7.986l5.226 3.062 5.151-3.062-5.151-3.07-5.226 3.07z" fill="#212121"/></svg>
